local/share/icons/dracula-icons-main/scalable/apps/wiznote.svg

<?xml version="1.0" encoding="UTF-8"?>
<svg xmlns="http://www.w3.org/2000/svg" xmlns:xlink="http://www.w3.org/1999/xlink" width="64" height="64" viewBox="0 0 64 64">
<path fill-rule="nonzero" fill="rgb(34.117647%, 57.647059%, 96.862745%)" fill-opacity="1" d="M 59 32 C 59 46.910156 46.910156 59 32 59 C 17.089844 59 5 46.910156 5 32 C 5 17.089844 17.089844 5 32 5 C 46.910156 5 59 17.089844 59 32 Z M 59 32 "/>
<path fill-rule="nonzero" fill="rgb(100%, 100%, 100%)" fill-opacity="1" d="M 20.199219 39.90625 L 15.863281 26.851562 C 15.429688 25.546875 15.394531 25.554688 16.730469 25.21875 L 19.332031 24.566406 C 20.632812 24.242188 20.632812 24.242188 21.066406 25.546875 L 23.210938 32 L 27.566406 42.515625 C 27.566406 42.515625 27.132812 43.824219 25.832031 43.300781 L 21.933594 41.734375 C 20.632812 41.210938 20.632812 41.210938 20.199219 39.90625 Z M 20.199219 39.90625 "/>
<path fill-rule="nonzero" fill="rgb(80.784314%, 87.843137%, 99.215686%)" fill-opacity="1" d="M 40.320312 45.269531 L 40.507812 44.691406 L 45.992188 22.527344 C 46.316406 21.214844 45.34375 19.464844 44.042969 19.027344 L 41.441406 18.152344 C 40.140625 17.714844 38.359375 18.574219 37.972656 19.902344 L 34.632812 31.363281 L 37.171875 44.691406 Z M 40.320312 45.269531 "/>
<path fill-rule="nonzero" fill="rgb(80.784314%, 87.843137%, 99.215686%)" fill-opacity="1" d="M 25.402344 24.386719 L 23.210938 32 L 26.703125 42.515625 C 26.769531 42.722656 26.953125 42.84375 27.136719 42.84375 C 27.316406 42.84375 27.519531 42.707031 27.570312 42.515625 L 29.558594 34.539062 L 27.019531 23.117188 C 27.019531 23.117188 25.75 23.484375 25.402344 24.386719 Z M 25.402344 24.386719 "/>
<path fill-rule="nonzero" fill="rgb(100%, 100%, 100%)" fill-opacity="1" d="M 31.902344 42.097656 L 26.269531 24.386719 C 25.992188 23.613281 25.402344 24.386719 25.402344 24.386719 C 25.402344 24.386719 25.75 23.058594 27.019531 22.800781 L 31.039062 21.984375 C 32.339844 21.722656 32.335938 21.714844 32.769531 23.074219 L 39.710938 44.699219 C 39.882812 45.242188 40.359375 45.3125 40.511719 44.699219 C 40.1875 46.058594 40.140625 46.175781 38.839844 45.722656 L 33.640625 43.914062 C 32.339844 43.457031 32.339844 43.457031 31.902344 42.097656 Z M 31.902344 42.097656 "/>
</svg>

<svg width="64" height="64" version="1.1" viewBox="0 0 64 64" xmlns="http://www.w3.org/2000/svg">
 <circle cx="32" cy="32" r="27" fill="#5793f7" stroke-width="1.1739"/>
 <path d="m20.198 39.906-4.3344-13.054c-0.43304-1.3054-0.46807-1.2966 0.86738-1.6317l2.6009-0.65271c1.3004-0.32635 1.2997-0.32611 1.7335 0.97906l2.1451 6.4545 4.357 10.516s-0.43304 1.3054-1.7335 0.78324l-3.9012-1.5665c-1.3004-0.52216-1.3004-0.52216-1.7348-1.8276z" fill="#ffffff" stroke-width="1.2691"/>
 <path d="m40.319 45.27 0.19059-0.5784 5.4832-22.166c0.32452-1.3119-0.65044-3.0597-1.9507-3.4971l-2.601-0.87492c-1.3006-0.43753-3.0819 0.4219-3.4683 1.7485l-3.3394 11.463 2.5383 13.326z" fill="#cee0fd" stroke-width="1.2691"/>
 <path d="m25.401 24.385-2.1894 7.6149 3.4899 10.516c0.06819 0.20549 0.2535 0.32806 0.43435 0.32793 0.18051-1.31e-4 0.38559-0.13751 0.43306-0.32793l1.9884-7.9773-2.5383-11.422s-1.2691 0.36705-1.618 1.2691z" fill="#cee0fd" stroke-width="1.2691"/>
 <path d="m31.904 42.099-5.6349-17.713c-0.27501-0.77343-0.86758 0-0.86758 0s0.34902-1.3269 1.6182-1.5844l4.0182-0.81541c1.302-0.26422 1.2977-0.27091 1.7335 1.0872l6.9397 21.625c0.17221 0.54441 0.64716 0.61427 0.79956 0-0.32512 1.359-0.36952 1.4782-1.6699 1.0257l-5.2018-1.8116c-1.3005-0.45391-1.3005-0.45391-1.7348-1.813z" fill="#ffffff" stroke-width="1.2691"/>
</svg>
